packages/dnb-ui-lib/assets/icons/download_medium.svg

<svg width="24" height="24" viewBox="0 0 24 24" fill="none" xmlns="http://www.w3.org/2000/svg">
<path d="M8.28033 13.4697C7.98744 13.1768 7.51256 13.1768 7.21967 13.4697C6.92678 13.7626 6.92678 14.2374 7.21967 14.5303L8.28033 13.4697ZM12 18.25L11.4697 18.7803C11.7626 19.0732 12.2374 19.0732 12.5303 18.7803L12 18.25ZM16.7803 14.5303C17.0732 14.2374 17.0732 13.7626 16.7803 13.4697C16.4874 13.1768 16.0126 13.1768 15.7197 13.4697L16.7803 14.5303ZM12.75 4.75C12.75 4.33579 12.4142 4 12 4C11.5858 4 11.25 4.33579 11.25 4.75H12.75ZM4 22.25C3.58579 22.25 3.25 22.5858 3.25 23C3.25 23.4142 3.58579 23.75 4 23.75V22.25ZM20 23.75C20.4142 23.75 20.75 23.4142 20.75 23C20.75 22.5858 20.4142 22.25 20 22.25V23.75ZM7.21967 14.5303L11.4697 18.7803L12.5303 17.7197L8.28033 13.4697L7.21967 14.5303ZM12.5303 18.7803L16.7803 14.5303L15.7197 13.4697L11.4697 17.7197L12.5303 18.7803ZM11.25 4.75V18.25H12.75V4.75H11.25ZM4 23.75H20V22.25H4V23.75Z" fill="black"/>
</svg>

<svg width="24" height="24" viewBox="0 0 24 24" fill="none" xmlns="http://www.w3.org/2000/svg"><path d="M8.28 13.47a.75.75 0 00-1.06 1.06l1.06-1.06zM12 18.25l-.53.53a.75.75 0 001.06 0l-.53-.53zm4.78-3.72a.75.75 0 10-1.06-1.06l1.06 1.06zm-4.03-9.78a.75.75 0 00-1.5 0h1.5zM4 22.25a.75.75 0 000 1.5v-1.5zm16 1.5a.75.75 0 000-1.5v1.5zM7.22 14.53l4.25 4.25 1.06-1.06-4.25-4.25-1.06 1.06zm5.31 4.25l4.25-4.25-1.06-1.06-4.25 4.25 1.06 1.06zM11.25 4.75v13.5h1.5V4.75h-1.5zM4 23.75h16v-1.5H4v1.5z" fill="#000"/></svg>
